X:104
T:La Rochelle. HSJJ.106
M:2/4
L:1/8
Q:1/4=110
S:HSJ Jackson,Wyresdale,Lancs.1823
R:.Country-dance
O:England
A:Lancashire
H:1823
Z:vmp.Chris Partington.
K:D
a|”_key of G in MS”affa|affa|bgec|d/c/d/e/ da|!
affa|affa|bgec|d2d:|!
|:e/d/|cccc|dd de/f/|gggg|f/e/f/g/ ff|!
cccc|dd de/f/|gedc|d2d:|

